icon-svg/table-lighting.svg

<svg xmlns="http://www.w3.org/2000/svg" fill="#44739e" viewBox="0 0 24 24"><path d="M20.086 5.851h-2.415V2h-.252v3.851H6.541V2h-.252v3.851H3.983v1.081h16.103ZM9.61 12.947h-2.6a.9.9 0 0 0-.914.882v3.483a.88.88 0 0 0 .755.851v2.583h.312v-2.552h2.4v2.552h.312v-2.6a.877.877 0 0 0 .648-.83v-3.487a.9.9 0 0 0-.913-.882m7.996 0H15a.9.9 0 0 0-.913.882v3.483a.88.88 0 0 0 .755.851v2.583h.312v-2.552h2.4v2.552h.311v-2.6a.875.875 0 0 0 .648-.83v-3.487a.9.9 0 0 0-.907-.882M2.598 15.345h.541v5.367h.684v-5.367h2.019v-.865H2.598Zm8.175-.865h3.066v.865h-3.066zm7.997 0v.865h1.443v5.367h.684v-5.367h.505v-.865Z"/></svg>

<?xml version="1.0" encoding="UTF-8"?>
<svg width="24px" fill="#44739e" height="24px" viewBox="0 0 24 24" version="1.1" xmlns="http://www.w3.org/2000/svg" xmlns:xlink="http://www.w3.org/1999/xlink">
            <path d="M 20.086,5.851 H 17.671 V 2 H 17.419 V 5.851 H 6.541 V 2 H 6.289 V 5.851 H 3.983 V 6.932 H 20.086 Z M 9.61,12.947 h -2.6 a 0.9,0.9 0 0 0 -0.914,0.882 v 3.483 a 0.88,0.88 0 0 0 0.755,0.851 v 2.583 h 0.312 v -2.552 h 2.4 v 2.552 h 0.312 v -2.6 a 0.877,0.877 0 0 0 0.648,-0.83 V 13.829 A 0.9,0.9 0 0 0 9.61,12.947 Z m 7.996,0 H 15 a 0.9,0.9 0 0 0 -0.913,0.882 v 3.483 a 0.88,0.88 0 0 0 0.755,0.851 v 2.583 h 0.312 v -2.552 h 2.4 v 2.552 h 0.311 v -2.6 a 0.875,0.875 0 0 0 0.648,-0.83 V 13.829 A 0.9,0.9 0 0 0 17.606,12.947 Z M 2.598,15.345 h 0.541 v 5.367 H 3.823 V 15.345 H 5.842 V 14.48 H 2.598 Z m 8.175,-0.865 h 3.066 v 0.865 h -3.066 z m 7.997,0 v 0.865 h 1.443 v 5.367 h 0.684 v -5.367 h 0.505 V 14.48 Z"/>

</svg>
